resources/svg/edit-o.svg

<svg width="15" height="15" viewBox="0 0 15 15" fill="none" xmlns="http://www.w3.org/2000/svg">
<path d="M0.5 10.5L0.146447 10.1464L0 10.2929V10.5H0.5ZM10.5 0.5L10.8536 0.146447C10.6583 -0.0488155 10.3417 -0.0488155 10.1464 0.146447L10.5 0.5ZM14.5 4.5L14.8536 4.85355C15.0488 4.65829 15.0488 4.34171 14.8536 4.14645L14.5 4.5ZM4.5 14.5V15H4.70711L4.85355 14.8536L4.5 14.5ZM0.5 14.5H0C0 14.7761 0.223858 15 0.5 15L0.5 14.5ZM0.853553 10.8536L10.8536 0.853553L10.1464 0.146447L0.146447 10.1464L0.853553 10.8536ZM10.1464 0.853553L14.1464 4.85355L14.8536 4.14645L10.8536 0.146447L10.1464 0.853553ZM14.1464 4.14645L4.14645 14.1464L4.85355 14.8536L14.8536 4.85355L14.1464 4.14645ZM4.5 14H0.5V15H4.5V14ZM1 14.5V10.5H0V14.5H1Z" fill="black"/>
</svg>

<svg viewBox="0 0 15 15" fill="none" xmlns="http://www.w3.org/2000/svg" fill="currentColor"><path d="M.5 10.5l-.354-.354-.146.147v.207h.5zm10-10l.354-.354a.5.5 0 00-.708 0L10.5.5zm4 4l.354.354a.5.5 0 000-.708L14.5 4.5zm-10 10v.5h.207l.147-.146L4.5 14.5zm-4 0H0a.5.5 0 00.5.5v-.5zm.354-3.646l10-10-.708-.708-10 10 .708.708zm9.292-10l4 4 .708-.708-4-4-.708.708zm4 3.292l-10 10 .708.708 10-10-.708-.708zM4.5 14h-4v1h4v-1zm-3.5.5v-4H0v4h1z" fill="currentColor"/></svg>
